assets/images/ywc18/icon/ywc_twitter.svg

<svg width="52" height="52" viewBox="0 0 52 52" fill="none" xmlns="http://www.w3.org/2000/svg">
<circle cx="26" cy="26" r="25" stroke="#F2F6FC" stroke-opacity="0.8" stroke-width="2"/>
<path d="M32.6661 14.3333C28.8803 14.3333 25.8018 17.4118 25.8018 21.1976C25.8018 21.4251 25.8587 21.6476 25.8809 21.8701C21.2001 21.4226 17.0608 19.1675 14.2493 15.718C14.1182 15.5524 13.9155 15.4633 13.7028 15.4782C13.4927 15.493 13.3047 15.6142 13.2009 15.7972C12.6099 16.8134 12.2711 17.983 12.2711 19.2392C12.2711 20.7599 12.8151 22.152 13.6558 23.2944C13.4927 23.2227 13.3146 23.1832 13.1613 23.0966C12.966 22.9928 12.7311 22.9977 12.5407 23.1114C12.3503 23.2252 12.234 23.4304 12.2316 23.6505V23.7296C12.2316 26.0614 13.4383 28.0865 15.2186 29.3278C15.1988 29.3254 15.179 29.3328 15.1593 29.3278C14.9417 29.2908 14.7216 29.3674 14.5757 29.5331C14.4298 29.6988 14.3828 29.9287 14.4471 30.1389C15.1543 32.3371 16.9594 34.0161 19.1947 34.6293C17.4144 35.6877 15.3497 36.3108 13.1217 36.3108C12.6396 36.3108 12.1772 36.2861 11.7172 36.2317C11.4205 36.1921 11.1362 36.3652 11.0372 36.6471C10.9359 36.929 11.0471 37.243 11.3018 37.3988C14.1578 39.2311 17.5479 40.3067 21.1927 40.3067C27.1 40.3067 31.7339 37.8389 34.8421 34.3128C37.9503 30.7867 39.5699 26.2073 39.5699 21.9295C39.5699 21.749 39.555 21.5734 39.5501 21.3954C40.7098 20.5077 41.7459 19.4667 42.5569 18.2501C42.7176 18.0152 42.7003 17.7011 42.5149 17.4835C42.3319 17.266 42.0228 17.1992 41.7656 17.3204C41.4392 17.4662 41.0585 17.4811 40.7172 17.5973C41.1673 16.9964 41.553 16.3486 41.7854 15.6191C41.8646 15.3694 41.778 15.0949 41.5728 14.9317C41.3675 14.771 41.0807 14.7512 40.8557 14.8872C39.7751 15.5276 38.5783 15.9777 37.3148 16.2521C36.0883 15.1048 34.4736 14.3333 32.6661 14.3333ZM32.6661 15.5993C34.2807 15.5993 35.7396 16.2892 36.7609 17.3797C36.9142 17.5379 37.1392 17.6047 37.3543 17.5577C38.1802 17.3945 38.9641 17.1547 39.7281 16.8456C39.288 17.439 38.744 17.9459 38.106 18.3292C37.8167 18.4702 37.6807 18.804 37.7871 19.1081C37.8909 19.4098 38.2074 19.5854 38.5214 19.5161C39.1545 19.4395 39.7182 19.1823 40.3216 19.0216C39.7801 19.6076 39.1866 20.1368 38.5412 20.6041C38.3657 20.7327 38.2692 20.9404 38.2841 21.158C38.294 21.4152 38.3039 21.6699 38.3039 21.9295C38.3039 25.8858 36.7856 30.1809 33.8925 33.4622C30.9995 36.7435 26.7513 39.0407 21.1927 39.0407C18.668 39.0407 16.2843 38.4818 14.1306 37.4977C16.8011 37.2925 19.264 36.3479 21.252 34.7876C21.4597 34.6219 21.5413 34.345 21.4573 34.0928C21.3732 33.8405 21.1408 33.6675 20.8762 33.66C18.7892 33.6229 17.041 32.4088 16.1088 30.6928C16.1434 30.6928 16.1731 30.6928 16.2077 30.6928C16.8333 30.6928 17.4515 30.6137 18.0276 30.4554C18.3045 30.3738 18.4949 30.1166 18.4851 29.8273C18.4752 29.538 18.2699 29.2908 17.988 29.2289C15.7354 28.774 14.0465 26.9392 13.6558 24.6594C14.2938 24.8794 14.9466 25.0525 15.6538 25.0748C15.9431 25.0921 16.2052 24.9116 16.2942 24.6371C16.3833 24.3626 16.2745 24.061 16.0297 23.9077C14.5262 22.9013 13.5372 21.1877 13.5372 19.2392C13.5372 18.5171 13.7251 17.8545 13.9724 17.2214C17.1374 20.6956 21.5685 23.0026 26.5733 23.2549C26.7711 23.2648 26.964 23.1832 27.0926 23.0323C27.2212 22.879 27.2706 22.6762 27.2261 22.4834C27.1297 22.0729 27.0678 21.6377 27.0678 21.1976C27.0678 18.0968 29.5653 15.5993 32.6661 15.5993Z" fill="#F2F6FC" fill-opacity="0.8" stroke="#F2F6FC" stroke-opacity="0.8" stroke-width="0.475"/>
</svg>

<svg width="52" height="52" fill="none" xmlns="http://www.w3.org/2000/svg"><circle cx="26" cy="26" r="25" stroke="#F2F6FC" stroke-opacity=".8" stroke-width="2"/><path d="M32.67 14.33a6.87 6.87 0 00-6.87 6.87c0 .23.06.45.08.67a17.02 17.02 0 01-11.63-6.15.64.64 0 00-1.05.08 6.81 6.81 0 00-.93 3.44c0 1.52.55 2.91 1.39 4.05-.17-.07-.35-.1-.5-.2a.63.63 0 00-.93.56v.08c0 2.33 1.2 4.36 2.99 5.6h-.06a.63.63 0 00-.71.8 6.88 6.88 0 004.74 4.5 11.83 11.83 0 01-7.47 1.6.63.63 0 00-.42 1.17 18.26 18.26 0 009.9 2.9c5.9 0 10.53-2.46 13.64-5.99 3.11-3.52 4.73-8.1 4.73-12.38l-.02-.53c1.16-.9 2.2-1.93 3-3.15a.63.63 0 00-.78-.93c-.33.15-.71.16-1.05.28.45-.6.83-1.25 1.07-1.98a.63.63 0 00-.93-.73c-1.08.64-2.28 1.09-3.55 1.36a6.81 6.81 0 00-4.64-1.92zm0 1.27a5.6 5.6 0 014.1 1.78c.14.16.37.22.58.18.83-.17 1.61-.4 2.38-.71-.44.59-.99 1.1-1.62 1.48a.63.63 0 00.41 1.19c.63-.08 1.2-.34 1.8-.5-.54.59-1.13 1.12-1.78 1.58a.63.63 0 00-.26.56l.02.77a17.8 17.8 0 01-4.4 11.53 16.45 16.45 0 01-12.7 5.58c-2.53 0-4.92-.56-7.07-1.54a13.1 13.1 0 007.12-2.71.63.63 0 00-.37-1.13 5.54 5.54 0 01-4.77-2.97h.1a6.9 6.9 0 001.82-.23.63.63 0 00-.04-1.23 5.56 5.56 0 01-4.33-4.57c.63.22 1.29.4 2 .41a.63.63 0 00.37-1.16 5.6 5.6 0 01-2.5-4.67c0-.72.2-1.39.44-2.02a18.27 18.27 0 0012.6 6.03c.2.01.4-.07.52-.22a.63.63 0 00.14-.55 5.59 5.59 0 015.44-6.88z" fill="#F2F6FC" fill-opacity=".8" stroke="#F2F6FC" stroke-opacity=".8" stroke-width=".47"/></svg>
